icons/lock-16.svg

<svg xmlns="http://www.w3.org/2000/svg" width="16" height="16" viewBox="0 0 16 16">
  <defs/>
  <path d="M4,4 C4,1.791 5.791,0 8,0 C10.209,0 12,1.791 12,4 L12,6 L12.25,6 C13.216,6 14,6.784 14,7.75 L14,13.25 C14,14.216 13.216,15 12.25,15 L3.75,15 C2.784,15 2,14.216 2,13.25 L2,7.75 C2,6.784 2.784,6 3.75,6 L4,6 Z M12.25,7.5 L3.75,7.5 C3.612,7.5 3.5,7.612 3.5,7.75 L3.5,13.25 C3.5,13.388 3.612,13.5 3.75,13.5 L12.25,13.5 C12.388,13.5 12.5,13.388 12.5,13.25 L12.5,7.75 C12.5,7.612 12.388,7.5 12.25,7.5 Z M10.5,6 L10.5,4 C10.5,2.619 9.381,1.5 8,1.5 C6.619,1.5 5.5,2.619 5.5,4 L5.5,6 Z"/>
</svg>

<svg xmlns="http://www.w3.org/2000/svg" width="16" height="16" viewBox="0 0 16 16"><path d="M4 4a4 4 0 018 0v2h.25c.966 0 1.75.784 1.75 1.75v5.5A1.75 1.75 0 0112.25 15h-8.5A1.75 1.75 0 012 13.25v-5.5C2 6.784 2.784 6 3.75 6H4zm8.25 3.5h-8.5a.25.25 0 00-.25.25v5.5c0 .138.112.25.25.25h8.5a.25.25 0 00.25-.25v-5.5a.25.25 0 00-.25-.25zM10.5 6V4a2.5 2.5 0 10-5 0v2z"/></svg>
